logos/todoist.svg

<?xml version="1.0" encoding="UTF-8"?>
<svg width="512px" height="130px" viewBox="0 0 512 130" version="1.1" xmlns="http://www.w3.org/2000/svg" xmlns:xlink="http://www.w3.org/1999/xlink" preserveAspectRatio="xMidYMid">
    <g>
				<path d="M220.837291,77.7272441 C220.837291,79.823622 221.188031,81.8393701 221.88548,83.7744882 C223.252733,87.6438427 226.12774,90.7951524 229.855748,92.5107402 C231.762646,93.4057323 233.927559,93.8532283 236.346457,93.8532283 C238.765354,93.8532283 240.926236,93.4097638 242.837165,92.5107402 C244.731969,91.623811 246.364724,90.4264567 247.72737,88.9307717 C249.077921,87.4310551 250.105953,85.7176693 250.803402,83.7704567 C251.496819,81.8353386 251.843528,79.8195906 251.843528,77.7232126 C251.843528,75.6429606 251.496819,73.6191496 250.807433,71.6759685 C250.132482,69.7743241 249.088495,68.0247559 247.735433,66.527748 C246.357397,65.0218633 244.693741,63.8049552 242.841197,62.9477795 C240.804327,62.0225188 238.587372,61.5612269 236.350488,61.5972283 C233.939654,61.5972283 231.770709,62.0527874 229.85978,62.9477795 C226.135745,64.6635168 223.262916,67.8111257 221.893543,71.6759685 C221.196094,73.6191496 220.845354,75.6429606 220.845354,77.7232126 M207.928441,78.368252 C207.928441,74.0948661 208.694425,70.2044724 210.214299,66.7172283 C211.652167,63.3456296 213.75558,60.2988333 216.398614,57.7592441 C219.05794,55.2414227 222.197978,53.2860975 225.63074,52.0103307 C229.265848,50.6503672 233.118447,49.96455 236.999559,49.9860081 C241.002835,49.9860081 244.792441,50.663811 248.356283,52.0103307 C251.792203,53.2894232 254.936892,55.2442294 257.604535,57.7592441 C260.243123,60.2986328 262.344781,63.3421298 263.784819,66.7091654 C265.304693,70.2044724 266.066646,74.0868031 266.066646,78.3722835 C266.066646,82.6577638 265.300661,86.544126 263.784819,90.0354016 C262.347784,93.4040934 260.245735,96.4481558 257.604535,98.9853228 C254.940681,101.50228 251.796604,103.456188 248.360315,104.730205 C244.731841,106.093943 240.883823,106.779918 237.007622,106.754016 C233.12617,106.779975 229.272854,106.09403 225.638803,104.730205 C222.204993,103.460344 219.064337,101.507377 216.406677,98.9893543 C213.763438,96.4539227 211.661083,93.4094171 210.226394,90.0394331 C208.70652,86.544126 207.944567,82.6617953 207.944567,78.376315 M285.429921,77.7272441 C285.429921,79.823622 285.77663,81.8393701 286.47811,83.7744882 C287.171528,85.7217008 288.191496,87.4350866 289.55011,88.9348031 C290.912756,90.4264567 292.54148,91.6197795 294.444346,92.5107402 C296.351244,93.4057323 298.516157,93.8532283 300.935055,93.8532283 C303.353953,93.8532283 305.514835,93.4097638 307.425764,92.5107402 C309.320567,91.623811 310.957354,90.4264567 312.311937,88.9307717 C313.66652,87.4310551 314.69052,85.7176693 315.392,83.7704567 C316.077354,81.8353386 316.428094,79.8195906 316.428094,77.7232126 C316.428094,75.6429606 316.077354,73.6191496 315.387969,71.6759685 C314.710031,69.7739464 313.663341,68.0244388 312.307906,66.527748 C310.933815,65.0192173 309.270902,63.8018495 307.417701,62.9477795 C305.380831,62.0225188 303.163876,61.5612269 300.926992,61.5972283 C298.508094,61.5972283 296.347213,62.0527874 294.436283,62.9477795 C290.711696,64.6627605 287.838616,67.8106439 286.470047,71.6759685 C285.768567,73.6191496 285.421858,75.6429606 285.421858,77.7232126 L285.429921,77.7272441 Z M317.84315,96.1511811 L317.617386,96.1511811 C315.670173,99.4086299 313.061795,101.775118 309.764031,103.254677 C306.407884,104.738889 302.774337,105.491984 299.104756,105.464693 C294.912,105.464693 291.194961,104.750362 287.937512,103.307087 C284.771135,101.926475 281.924433,99.9060581 279.576189,97.3727244 C277.226283,94.8096636 275.428623,91.7906927 274.294929,88.5034331 C273.080847,84.9762448 272.47688,81.2679142 272.508976,77.5377638 C272.508976,73.6191496 273.13789,69.9585512 274.419906,66.5559685 C275.604946,63.2839019 277.412029,60.2720974 279.74148,57.6866772 C282.045232,55.1567609 284.853772,53.1379076 287.98589,51.760378 C291.211087,50.3090394 294.726551,49.5914331 298.532283,49.5914331 C301.08422,49.5914331 303.329764,49.8534803 305.276976,50.3654803 C307.224189,50.8895748 308.937575,51.5467087 310.437291,52.3691339 C312.926011,53.6632247 315.107849,55.476611 316.835276,57.6866772 L317.16989,57.6866772 L317.16989,28.3696378 C317.16989,27.0392441 318.234205,25.4750236 320.104819,25.4750236 L327.716283,25.4750236 C329.474016,25.4750236 330.64315,26.9344252 330.64315,28.3696378 L330.64315,101.234898 C330.64315,103.089386 329.05474,104.137575 327.716283,104.137575 L320.786142,104.137575 C319.17905,104.13125 317.87164,102.841749 317.84315,101.234898 L317.84315,96.1511811 L317.84315,96.1511811 Z M352.594646,77.7272441 C352.594646,79.823622 352.949417,81.8393701 353.642835,83.7744882 C354.344315,85.7217008 355.364283,87.4350866 356.726929,88.9348031 C358.085543,90.4264567 359.710236,91.6197795 361.621165,92.5107402 C363.515969,93.4057323 365.692976,93.8532283 368.103811,93.8532283 C370.522709,93.8532283 372.683591,93.4097638 374.59452,92.5107402 C376.497386,91.623811 378.122079,90.4264567 379.484724,88.9307717 C380.839307,87.4310551 381.863307,85.7176693 382.564787,83.7704567 C383.250142,81.8353386 383.600882,79.8195906 383.600882,77.7232126 C383.600882,75.6429606 383.258205,73.6191496 382.568819,71.6759685 C381.890746,69.7749025 380.845589,68.0256676 379.492787,66.527748 C378.117891,65.0201144 376.455172,63.8028887 374.602583,62.9477795 C372.565713,62.0225188 370.348758,61.5612269 368.111874,61.5972283 C365.701039,61.5972283 363.532094,62.0527874 361.629228,62.9477795 C357.902264,64.6631689 355.025499,67.8103127 353.650898,71.6759685 C352.955955,73.6163372 352.601347,75.662151 352.602709,77.7232126 M339.689827,78.368252 C339.689827,74.0948661 340.455811,70.2044724 341.975685,66.7172283 C343.409231,63.3442544 345.511664,60.2968925 348.155969,57.7592441 C350.815294,55.2414227 353.955332,53.2860975 357.388094,52.0103307 C361.023203,50.6503672 364.875802,49.96455 368.756913,49.9860081 C372.760189,49.9860081 376.549795,50.663811 380.109606,52.0103307 C383.544818,53.2884244 386.688375,55.2433795 389.353827,57.7592441 C391.993675,60.2975606 394.095522,63.3413302 395.53411,66.7091654 C397.053984,70.2044724 397.815937,74.0868031 397.815937,78.3722835 C397.815937,82.6577638 397.049953,86.544126 395.530079,90.0354016 C394.090104,93.4034766 391.986894,96.4472357 389.345764,98.9853228 C386.682588,101.503161 383.538321,103.457186 380.101543,104.730205 C376.47307,106.093943 372.625051,106.779918 368.74885,106.754016 C364.867399,106.779975 361.014082,106.09403 357.380031,104.730205 C353.946222,103.460344 350.805566,101.507377 348.147906,98.9893543 C345.504666,96.4539227 343.402312,93.4094171 341.967622,90.0394331 C340.443717,86.544126 339.681764,82.6617953 339.681764,78.376315 M404.270362,31.9294488 C404.270362,29.8491969 405.052472,28.0471181 406.60863,26.4990236 C408.180913,24.9589921 410.156346,24.1889764 412.555087,24.1889764 C414.953827,24.1889764 416.973606,24.9227087 418.602331,26.3942047 C420.239118,27.8616693 421.061543,29.7080945 421.061543,31.9294488 C421.061543,34.1467717 420.239118,36.0012598 418.602331,37.4646929 C416.973606,38.936189 414.953827,39.6699213 412.555087,39.6699213 C410.160378,39.6699213 408.184945,38.903937 406.612661,37.351811 C405.048441,35.8117795 404.266331,34.0056693 404.266331,31.9294488 M459.731654,66.3181102 C458.40126,66.3181102 457.433701,65.3021732 457.260346,64.8587087 C456.155717,61.9157165 452.632189,60.8070551 449.785953,60.8070551 C445.298898,60.8070551 441.779402,62.9195591 441.779402,66.551937 C441.779402,70.0674016 445.186016,70.7850079 447.290457,71.4300472 C449.596472,72.143622 454.010961,73.1232756 456.441953,73.703811 C458.917291,74.2924094 461.219276,75.1551496 463.376126,76.296063 C470.431244,80.0211654 471.439118,85.8829606 471.439118,89.4145512 C471.439118,102.42822 458.739906,106.749984 449.927055,106.749984 C443.129953,106.749984 430.362205,105.701795 427.560315,92.5389606 C427.286173,91.2609764 428.406929,89.2895748 430.454929,89.2895748 L437.792252,89.2895748 C439.243591,89.2895748 440.21115,90.3579213 440.493354,91.1964724 C441.444787,93.8451654 444.44422,95.8407559 449.499717,95.8407559 C454.92611,95.8407559 458.135181,93.655685 458.135181,90.7489764 C458.135181,88.8702992 457.086992,87.1931969 455.716283,86.2538583 C451.604157,83.415685 441.42463,83.0971969 435.90148,80.1098583 C433.784945,78.9689449 428.475465,76.3525039 428.475465,67.4428976 C428.475465,55.1669921 439.465323,49.9865197 449.116724,49.9865197 C463.355969,49.9865197 468.580787,59.1259213 469.169386,62.512378 C469.491906,64.3829921 468.463874,66.3181102 466.395717,66.3181102 L459.723591,66.3181102 L459.731654,66.3181102 Z M472.733228,58.9606299 L472.733228,53.4173228 C472.733228,52.0869291 473.793512,50.5025512 475.67622,50.5025512 L482.92485,50.5025512 L482.92485,36.888189 C482.92485,35.4287874 483.932724,34.5418583 484.686614,34.2153071 C485.130079,34.0217953 489.193827,32.280189 492.427087,30.8812598 C494.696819,29.9661102 496.527118,31.8085039 496.527118,33.5742992 L496.527118,50.5065827 L508.528882,50.5065827 C510.38337,50.5065827 511.483969,52.0949921 511.483969,53.4173228 L511.483969,58.9686929 C511.483969,60.5812913 510.024567,61.8915276 508.528882,61.8915276 L496.523087,61.8915276 L496.523087,85.3548346 C496.523087,88.039811 496.442457,90.136189 497.490646,91.6842835 C498.438047,93.1074016 499.836976,93.6314961 502.638866,93.6314961 C503.437102,93.6314961 504.154709,93.4984567 504.759433,93.2968819 C506.533291,92.6921575 507.863685,93.720189 508.319244,94.5869606 C509.19811,96.2680945 510.214047,98.1225827 510.923591,99.4529764 C511.288852,100.152803 511.359765,100.969449 511.1206,101.72176 C510.881434,102.474072 510.351963,103.099851 509.649638,103.460283 C507.351685,104.564913 504.15874,105.459906 499.784567,105.459906 C496.15622,105.459906 494.10822,105.06885 491.814299,104.290772 C489.557971,103.473505 487.556006,102.077691 486.008945,100.24315 C484.678551,98.6466772 484.017386,96.5019213 483.529575,94.1152756 C483.033701,91.7366929 482.916787,88.8461102 482.916787,85.7136378 L482.916787,61.8874961 L475.684283,61.8874961 C473.78948,61.8874961 472.729197,60.2668346 472.729197,58.9565984 M166.581417,58.9606299 L166.581417,53.4173228 C166.581417,52.0869291 167.61348,50.5025512 169.44378,50.5025512 L177.514835,50.5025512 L177.514835,36.888189 C177.514835,35.4287874 178.490457,34.5418583 179.232252,34.2153071 C179.667654,34.0217953 183.61852,32.280189 186.77115,30.8812598 C188.980409,29.9661102 190.762331,31.8085039 190.762331,33.5742992 L190.762331,50.5065827 L202.453669,50.5065827 C204.25978,50.5065827 205.336189,52.0949921 205.336189,53.4173228 L205.336189,58.9686929 C205.336189,60.5812913 203.913071,61.8915276 202.457701,61.8915276 L190.766362,61.8915276 L190.766362,85.3548346 C190.766362,88.039811 190.685732,90.136189 191.693606,91.6842835 C192.62085,93.1074016 193.991559,93.6314961 196.71685,93.6314961 C197.498961,93.6314961 198.196409,93.4984567 198.789039,93.2968819 C200.522583,92.6921575 201.812661,93.720189 202.256126,94.5869606 C203.114835,96.2680945 204.102551,98.1225827 204.795969,99.4529764 C205.55389,100.904315 204.941102,102.778961 203.546205,103.460283 C201.308724,104.564913 198.204472,105.459906 193.951244,105.459906 C190.415622,105.459906 188.416,105.06885 186.182551,104.290772 C183.971316,103.465385 182.018292,102.068778 180.522331,100.24315 C179.224189,98.6466772 178.587213,96.5019213 178.103433,94.1152756 C177.619654,91.7366929 177.506772,88.8461102 177.506772,85.7136378 L177.506772,61.8874961 L169.455874,61.8874961 C167.601386,61.8874961 166.573354,60.2668346 166.573354,58.9565984 M409.664504,104.173858 L416.961512,104.173858 C418.509606,104.173858 419.771572,102.88378 419.771572,101.299402 L419.771572,54.1550866 C419.784947,52.588677 418.531822,51.3049441 416.965543,51.2806299 L409.668535,51.2806299 C408.098151,51.2983476 406.83888,52.5846802 406.854551,54.1550866 L406.854551,101.299402 C406.854551,102.879748 408.112378,104.173858 409.660472,104.173858" fill="#E44332"></path>
				<g>
						<path d="M113.031055,0 L16.1461417,0 C7.24499296,0.01990372 0.0310231864,7.22486729 0,16.1259843 L0,112.88189 C0,121.751181 7.26475591,129.007874 16.1461417,129.007874 L113.031055,129.007874 C121.912441,129.007874 129.177197,121.751181 129.177197,112.88189 L129.177197,16.1259843 C129.177197,7.25669291 121.912441,0 113.031055,0" fill="#E44332"></path>
						<path d="M27.3819213,61.1053858 C29.6395591,59.7870866 78.1384567,31.6028976 79.2471181,30.9497953 C80.3557795,30.3047559 80.416252,28.3212598 79.1664882,27.6036535 C77.9247874,26.8900787 75.5663622,25.5354961 74.6915276,25.0154331 C73.4424257,24.3282287 71.9243964,24.346592 70.6922835,25.063811 C70.0714331,25.4266457 28.631685,49.4946772 27.2488819,50.2848504 C25.583874,51.2362835 23.5399055,51.2524094 21.8869921,50.2848504 L0,37.4405039 L0,48.3577953 C5.3215748,51.4942992 18.5731024,59.2831496 21.7821732,61.1174803 C23.6971339,62.2059843 25.5314646,62.1817953 27.3859528,61.1053858" fill="#FFFFFF"></path>
						<path d="M27.3819213,81.7466457 C29.6395591,80.4283465 78.1384567,52.2441575 79.2471181,51.5910551 C80.3557795,50.9460157 80.416252,48.9625197 79.1664882,48.2449134 C77.9247874,47.5313386 75.5663622,46.1767559 74.6915276,45.6566929 C73.4424257,44.9694886 71.9243964,44.9878518 70.6922835,45.7050709 C70.0714331,46.0679055 28.631685,70.135937 27.2488819,70.9261102 C25.583874,71.8775433 23.5399055,71.8936693 21.8869921,70.9261102 L0,58.0817638 L0,68.9990551 C5.3215748,72.1355591 18.5731024,79.9244094 21.7821732,81.7587402 C23.6971339,82.8472441 25.5314646,82.8230551 27.3859528,81.7466457" fill="#FFFFFF"></path>
						<path d="M27.3819213,103.677984 C29.6395591,102.359685 78.1384567,74.1754961 79.2471181,73.5223937 C80.3557795,72.8773543 80.416252,70.8938583 79.1664882,70.176252 C77.9247874,69.4626772 75.5663622,68.1080945 74.6915276,67.5880315 C73.4424257,66.9008272 71.9243964,66.9191904 70.6922835,67.6364094 C70.0714331,67.9992441 28.631685,92.0672756 27.2488819,92.8574488 C25.583874,93.8088819 23.5399055,93.8250079 21.8869921,92.8574488 L0,80.0131024 L0,90.9303937 C5.3215748,94.0668976 18.5731024,101.855748 21.7821732,103.690079 C23.6971339,104.778583 25.5314646,104.754394 27.3859528,103.677984" fill="#FFFFFF"></path>
				</g>
		</g>
</svg>

<svg width="512" height="130" xmlns="http://www.w3.org/2000/svg" preserveAspectRatio="xMidYMid">
	<path d="M220.837 77.727a17.7 17.7 0 0 0 1.048 6.047 15.187 15.187 0 0 0 7.97 8.737c1.908.895 4.073 1.342 6.491 1.342 2.42 0 4.58-.443 6.491-1.342a15.349 15.349 0 0 0 4.89-3.58 15.373 15.373 0 0 0 3.076-5.16 17.792 17.792 0 0 0 1.04-6.048c0-2.08-.346-4.104-1.036-6.047a15.32 15.32 0 0 0-3.072-5.148 15.4 15.4 0 0 0-4.894-3.58 15.106 15.106 0 0 0-6.49-1.35c-2.411 0-4.58.455-6.491 1.35a15.199 15.199 0 0 0-7.966 8.728 17.802 17.802 0 0 0-1.049 6.047m-12.917.645c0-4.273.766-8.164 2.286-11.65a27.245 27.245 0 0 1 6.185-8.959 27.22 27.22 0 0 1 9.232-5.749A31.941 31.941 0 0 1 237 49.986c4.003 0 7.792.678 11.356 2.024a27.434 27.434 0 0 1 9.249 5.75 27.346 27.346 0 0 1 6.18 8.95c1.52 3.494 2.282 7.377 2.282 11.662 0 4.286-.766 8.172-2.282 11.663a27.22 27.22 0 0 1-6.18 8.95 27.257 27.257 0 0 1-9.245 5.745 31.667 31.667 0 0 1-11.352 2.024 31.752 31.752 0 0 1-11.37-2.024 27.08 27.08 0 0 1-9.231-5.74 27.124 27.124 0 0 1-6.18-8.95c-1.52-3.496-2.282-7.378-2.282-11.664m77.485-.649c0 2.097.347 4.112 1.048 6.047a15.168 15.168 0 0 0 3.072 5.16 15.387 15.387 0 0 0 4.894 3.577c1.907.895 4.072 1.342 6.491 1.342 2.419 0 4.58-.443 6.49-1.342 1.896-.887 3.532-2.085 4.887-3.58a15.383 15.383 0 0 0 3.08-5.16 17.986 17.986 0 0 0 1.036-6.048c0-2.08-.35-4.104-1.04-6.047a15.344 15.344 0 0 0-3.08-5.148 15.247 15.247 0 0 0-4.89-3.58 15.106 15.106 0 0 0-6.491-1.35c-2.419 0-4.58.455-6.49 1.35a15.19 15.19 0 0 0-7.967 8.728 17.705 17.705 0 0 0-1.048 6.047l.008.004Zm32.413 18.424h-.226c-1.947 3.258-4.555 5.624-7.853 7.104a25.879 25.879 0 0 1-10.66 2.21c-4.192 0-7.909-.715-11.166-2.158a25.056 25.056 0 0 1-8.362-5.934 25.358 25.358 0 0 1-5.281-8.87 32.824 32.824 0 0 1-1.786-10.965c0-3.919.629-7.58 1.91-10.982a26.97 26.97 0 0 1 5.322-8.87 24.48 24.48 0 0 1 8.245-5.926c3.225-1.451 6.74-2.169 10.546-2.169 2.552 0 4.798.262 6.745.774 1.947.525 3.66 1.182 5.16 2.004a19.593 19.593 0 0 1 6.398 5.318h.335V28.37c0-1.33 1.064-2.895 2.935-2.895h7.611c1.758 0 2.927 1.46 2.927 2.895v72.865c0 1.854-1.588 2.903-2.927 2.903h-6.93a2.955 2.955 0 0 1-2.943-2.903V96.15Zm34.752-18.424c0 2.097.354 4.112 1.048 6.047a15.262 15.262 0 0 0 3.084 5.16 15.254 15.254 0 0 0 4.894 3.577c1.895.895 4.072 1.342 6.483 1.342 2.419 0 4.58-.443 6.49-1.342a15.26 15.26 0 0 0 4.89-3.58 15.383 15.383 0 0 0 3.08-5.16 17.986 17.986 0 0 0 1.037-6.048c0-2.08-.343-4.104-1.032-6.047a15.4 15.4 0 0 0-3.076-5.148 15.291 15.291 0 0 0-4.89-3.58 15.106 15.106 0 0 0-6.491-1.35c-2.411 0-4.58.455-6.483 1.35a15.223 15.223 0 0 0-7.978 8.728 17.9 17.9 0 0 0-1.048 6.047m-12.913.645c0-4.273.766-8.164 2.286-11.65a27.116 27.116 0 0 1 6.18-8.959 27.22 27.22 0 0 1 9.232-5.749 31.941 31.941 0 0 1 11.369-2.024c4.003 0 7.793.678 11.353 2.024a27.374 27.374 0 0 1 9.244 5.75 27.285 27.285 0 0 1 6.18 8.95c1.52 3.494 2.282 7.377 2.282 11.662 0 4.286-.766 8.172-2.286 11.663a27.293 27.293 0 0 1-6.184 8.95 27.217 27.217 0 0 1-9.244 5.745 31.667 31.667 0 0 1-11.353 2.024 31.752 31.752 0 0 1-11.369-2.024 27.08 27.08 0 0 1-9.232-5.74 27.124 27.124 0 0 1-6.18-8.95c-1.524-3.496-2.286-7.378-2.286-11.664M404.27 31.93c0-2.08.782-3.882 2.339-5.43 1.572-1.54 3.547-2.31 5.946-2.31 2.399 0 4.419.734 6.047 2.205 1.637 1.468 2.46 3.314 2.46 5.535 0 2.218-.823 4.072-2.46 5.536-1.628 1.471-3.648 2.205-6.047 2.205-2.395 0-4.37-.766-5.942-2.318-1.565-1.54-2.347-3.346-2.347-5.423m55.466 34.39c-1.33 0-2.298-1.017-2.472-1.46-1.104-2.943-4.628-4.052-7.474-4.052-4.487 0-8.007 2.113-8.007 5.745 0 3.515 3.407 4.233 5.511 4.878 2.306.714 6.721 1.693 9.152 2.274a29.163 29.163 0 0 1 6.934 2.592c7.055 3.725 8.063 9.587 8.063 13.119 0 13.013-12.7 17.335-21.512 17.335-6.797 0-19.565-1.048-22.367-14.211-.274-1.278.847-3.25 2.895-3.25h7.337c1.452 0 2.42 1.069 2.701 1.907.952 2.65 3.951 4.645 9.007 4.645 5.426 0 8.635-2.185 8.635-5.092 0-1.879-1.048-3.556-2.419-4.495-4.112-2.838-14.291-3.157-19.815-6.144-2.116-1.141-7.426-3.757-7.426-12.667 0-12.276 10.99-17.456 20.642-17.456 14.239 0 19.464 9.139 20.052 12.525.323 1.871-.705 3.806-2.773 3.806h-6.672.008Zm13.001-7.358v-5.544c0-1.33 1.06-2.914 2.943-2.914h7.249V36.888c0-1.46 1.008-2.346 1.762-2.673.443-.193 4.507-1.935 7.74-3.334 2.27-.915 4.1.928 4.1 2.693v16.933h12.002c1.854 0 2.955 1.588 2.955 2.91v5.552c0 1.612-1.46 2.923-2.955 2.923h-12.006v23.463c0 2.685-.08 4.781.968 6.33.947 1.422 2.346 1.946 5.148 1.946.798 0 1.516-.133 2.12-.334 1.774-.605 3.105.423 3.56 1.29.88 1.681 1.895 3.536 2.605 4.866a2.963 2.963 0 0 1-1.274 4.007c-2.298 1.105-5.491 2-9.865 2-3.629 0-5.677-.391-7.97-1.17a13.695 13.695 0 0 1-5.806-4.047c-1.33-1.596-1.992-3.741-2.48-6.128-.495-2.378-.612-5.269-.612-8.401V61.887h-7.233c-1.895 0-2.955-1.62-2.955-2.93m-306.148.004v-5.544c0-1.33 1.032-2.914 2.863-2.914h8.07V36.888c0-1.46.976-2.346 1.718-2.673.436-.193 4.387-1.935 7.54-3.334 2.208-.915 3.99.928 3.99 2.693v16.933h11.692c1.806 0 2.882 1.588 2.882 2.91v5.552c0 1.612-1.423 2.923-2.878 2.923h-11.692v23.463c0 2.685-.08 4.781.928 6.33.927 1.422 2.298 1.946 5.023 1.946.782 0 1.48-.133 2.072-.334a2.8 2.8 0 0 1 3.467 1.29c.859 1.681 1.847 3.536 2.54 4.866.758 1.451.145 3.326-1.25 4.007-2.237 1.105-5.342 2-9.595 2-3.535 0-5.535-.391-7.768-1.17a13.356 13.356 0 0 1-5.66-4.047c-1.299-1.596-1.936-3.741-2.42-6.128-.483-2.378-.596-5.269-.596-8.401V61.887h-8.051c-1.855 0-2.883-1.62-2.883-2.93m243.092 45.217h7.297c1.548 0 2.81-1.29 2.81-2.875V54.155a2.85 2.85 0 0 0-2.806-2.874h-7.297a2.846 2.846 0 0 0-2.814 2.874V101.3c0 1.58 1.257 2.875 2.805 2.875" fill="#E44332"/>
	<path d="M113.031 0H16.146C7.245.02.031 7.225 0 16.126v96.756c0 8.87 7.265 16.126 16.146 16.126h96.885c8.881 0 16.146-7.257 16.146-16.126V16.126c0-8.87-7.265-16.126-16.146-16.126" fill="#E44332"/>
	<path d="M27.382 61.105c2.258-1.318 50.756-29.502 51.865-30.155 1.109-.645 1.17-2.629-.08-3.346-1.242-.714-3.6-2.069-4.475-2.589a4.06 4.06 0 0 0-4 .049c-.62.363-42.06 24.43-43.443 25.22-1.665.952-3.71.968-5.362 0L0 37.442v10.917c5.322 3.136 18.573 10.925 21.782 12.76 1.915 1.088 3.75 1.064 5.604-.013" fill="#FFF"/>
	<path d="M27.382 81.747c2.258-1.319 50.756-29.503 51.865-30.156 1.109-.645 1.17-2.628-.08-3.346-1.242-.714-3.6-2.068-4.475-2.588a4.06 4.06 0 0 0-4 .048c-.62.363-42.06 24.43-43.443 25.221-1.665.952-3.71.968-5.362 0L0 58.082v10.917c5.322 3.137 18.573 10.925 21.782 12.76 1.915 1.088 3.75 1.064 5.604-.012" fill="#FFF"/>
	<path d="M27.382 103.678c2.258-1.318 50.756-29.503 51.865-30.156 1.109-.645 1.17-2.628-.08-3.346-1.242-.713-3.6-2.068-4.475-2.588a4.06 4.06 0 0 0-4 .048c-.62.363-42.06 24.431-43.443 25.221-1.665.952-3.71.968-5.362 0L0 80.013V90.93c5.322 3.137 18.573 10.926 21.782 12.76 1.915 1.089 3.75 1.064 5.604-.012" fill="#FFF"/>
</svg>
